packages/devextreme-scss/images/icons/generic/bell.svg

<!-- Generated by IcoMoon.io -->
<svg version="1.1" xmlns="http://www.w3.org/2000/svg" width="18" height="18" viewBox="0 0 18 18">
<path d="M7.4 2.4c0-0.8 0.7-1.4 1.6-1.4s1.6 0.6 1.6 1.4c0 0.1 0 0.1 0 0.2 2.2 0.7 3.4 2.1 3.4 4.4v5l2 1.3v0.7h-14v-0.7l2-1.3v-5c0-2.3 1.2-3.7 3.4-4.3 0-0.1 0-0.2 0-0.3z"></path>
<path d="M7 15h4c0 1.1-0.9 2-2 2s-2-0.9-2-2z"></path>
</svg>

<!-- Generated by IcoMoon.io -->
<svg version="1.1" xmlns="http://www.w3.org/2000/svg" width="18" height="18" viewBox="0 0 18 18" >
<path d="M7.4,2.4C7.4,1.6,8.1,1,9,1c0.9,0,1.6,0.6,1.6,1.4c0,0.1,0,0.1,0,0.2C12.8,3.3,14,4.7,14,7v5l2,1.3V14H2v-0.7
	L4,12V7c0-2.3,1.2-3.7,3.4-4.3C7.4,2.6,7.4,2.5,7.4,2.4z"/>
<path d="M7,15h4c0,1.1-0.9,2-2,2S7,16.1,7,15z"/>
</svg>
